X: 34
T: Betty Lou Beaton
T: Strathspey, A
C: John Morris Rankin
L: 1/16
M: C
K: A
c1| e3f1 e1c3 d1e3 d1B3| c3B1 c3d1 e3f1 e1c3| e3f1 e1c3 d3e1 d1B3| c1A3 B1G3 A4A3c1| 
e3f1 e1c3 d1e3 d1B3| c3B1 c3d1 e3f1 e1d3| c3d1 e3c1 d3e1 f1d3| c1A3 B1G3 A4A3|| 
|: F1| E3A1 c3A1 B3A1 F1A3| E3A1 c3A1 B3c1 d1F3| E3d1 c3A1 B3A1 F1A3| E3F1 A1B3 A4A3:| 
D: Karen Beaton, Route 19, KLB-2000
